X:1
T:Title
%%score { ( 1 3 ) | ( 2 4 ) }
L:1/8
Q:1/4=100
M:4/4
K:Bb
V:1 treble nm="Grand Piano"
V:3 treble 
V:2 bass 
V:4 bass 
V:1
 [DF]2 [DF]>[EG] [DF]2 [B,D][DF] | [Fd]2 [Fd]>[Ec] [Ec] [DB]2 [DF] | %2
w: J.~C.~Williams * * * * *||
 [B,EG]2 [B,FA][B,GB] [B,F]2 [EA][DB] | z4 c4[K:bass] | [DF]2 [DF]>[EG] [DF]2 [B,D][DF] | %5
w: |||
 [Fd]2 [Fd]>[Ec] [Ec] [DB]2 [FB] | [FA]2 [=EG][FA] [Ac]2 [GB][FA] | .[=EG]2 [CEA][B,EG] F4 | %8
w: |||
 c2 =BB c d2 c | [Ec][DB][FA][EG] [EG] [DF]3 | [B,EG]2 [B,FA][B,GB] [B,F]2 [EA][DB] | c2 c>=B c4 | %12
w: ||||
 [Fd]2 [Ec][DB] [Fd] [Fd]2 [Bd] | [Ac][GB][FA][EG] [EG] [DF]3 | G2 ^FG [=Ec] [Ec]2 [EB] | %15
w: |||
 A2 G>A [DB]4 |] %16
w: |
V:2
 [B,,B,]2 [B,,B,]>[B,,B,] [B,,B,]2 [B,,F,][B,,B,] | %1
 [B,,B,]2 [B,,B,]>[B,,B,] [B,,B,] [B,,B,]2 [B,,B,] | E,2 E,E, D,2 [C,F,][B,,B,] | %3
 [F,A,F]2 [F,_A,F]>[F,A,F] [F,=A,F]4 | [B,,B,]2 [B,,B,]>[B,,B,] [B,,B,]2 [B,,F,][B,,B,] | %5
 [B,,B,]2 [B,,B,]>[B,,B,] [B,,B,] [B,,B,]2 [D,B,] | [C,C]2 [C,C][C,C] [C,C]2 [C,C][C,C] | %7
 z[K:treble] B[K:bass]C,C, [F,A,]4 | [F,A,E]2 [F,_A,D][F,A,D] [F,=A,E] [F,A,F]2 [F,A,E] | %9
 [B,,B,]2 [B,,B,][B,,B,] [B,,B,] [B,,B,]3 | E,2 E,E, D,2 [C,F,][B,,B,] | %11
 [F,A,F]2 [F,A,F]>[F,_A,F] [F,=A,F]4 | [B,,B,]2 [B,,F,][B,,F,] [B,,B,] [B,,B,]2 [B,,B,] | %13
 [E,B,]2 [E,B,][E,B,] [B,,B,] [B,,B,]3 | [E,B,E]2 [E,A,E][E,B,E] [C,B,] [C,B,]2 [C,C] | %15
 [F,CE]2 [F,A,E]>[F,E] [B,,F,]4 |] %16
V:3
 x8 | x8 | x8 | c2 =B>B z[K:bass] E,D,C, | x8 | x8 | x8 | x8 | x8 | x8 | x8 | x8 | x8 | x8 | x8 | %15
 x8 |] %16
V:4
 x8 | x8 | x8 | x8 | x8 | x8 | x8 | [C,C]2[K:treble][K:bass] z2 z4 | x8 | x8 | x8 | x8 | x8 | x8 | %14
 x8 | x8 |] %16

